X:1
T:Cock the North
L:1/8
M:none
I:linebreak $
K:A
V:1 treble nm="Voice" snm="Voice"
V:1
 F4 | cde f2 e F6 cdc cBA | B3 e2 d2 |$ cdc cBA | Ace f2 e | cAc B=GB | A3 A3 ::$ a2 e f2 e | %8
 a2 e f2 e | cdc cBA |"Bm" BcB B2 e |$ a2 e f2 e | a2 e f2 e | cAc B=GB | A3 A3 :| %15
